X:1701
T:A Trip to Aberdeen
P:The Braes of Elchies
C:Charles Grant
R:Jig (8x32)
B:RSCDS 17-1
Z:Anselm Lingnau <anselm@strathspey.org>
M:6/8
L:1/8
K:C
A|"C"G>EG c3|"G"e2d "Am"c2A|"C"G>EG "G7"f3|"C"ege "G"d2 A|\
  "C"G>EG c3|"G"e2d "Am"c2B|
                            "F"AFA "C"GcE|"G7"D3 C2:|\
e/f/|"C"g>eg gec|"Dm"a>fa afd|"C"g>eg gec|"D"e>ce "G"dBG|
     "C"g>eg gec|"Dm"a>fa afd|"C"g>eg "G"dBG|"C"c3 c2 e/f/|\
     "C"g>eg gec|"Dm"a>fa afd|
                              "C"g>eg gec|"D"e>ce "G"dBG|\
     "D"A>FA A>FA|"Em"G>EG "C"G>EG|"F"AFA "C"GcE|"G"D3 "C"C2|]

